icons/bug-24.svg

<svg xmlns="http://www.w3.org/2000/svg" width="24" height="24" viewBox="0 0 24 24"><path d="M7.72.22a.75.75 0 011.06 0l1.204 1.203A4.98 4.98 0 0112 1c.717 0 1.4.151 2.016.423L15.22.22a.751.751 0 011.042.018.751.751 0 01.018 1.042l-.971.972A4.991 4.991 0 0117 6v1.104a2.755 2.755 0 011.917 1.974l1.998-.999a.75.75 0 01.67 1.342L19 10.714V13.5l3.25.003a.75.75 0 010 1.5L19 15.001V16c0 .568-.068 1.134-.204 1.686l.04.018 2.75 1.375a.75.75 0 11-.671 1.342l-2.638-1.319A6.998 6.998 0 0112 23a6.998 6.998 0 01-6.197-3.742l-2.758 1.181a.752.752 0 01-1.064-.776.752.752 0 01.474-.602l2.795-1.199A6.976 6.976 0 015 16v-.996H1.75a.75.75 0 010-1.5H5v-2.79L2.415 9.42a.75.75 0 01.67-1.342l1.998.999A2.756 2.756 0 017 7.104V6a4.99 4.99 0 011.69-3.748l-.97-.972a.75.75 0 010-1.06zM6.5 9.75V16a5.5 5.5 0 1011 0V9.75c0-.69-.56-1.25-1.25-1.25h-8.5c-.69 0-1.25.56-1.25 1.25zM8.5 7h7V6a3.5 3.5 0 10-7 0z"/></svg>

<svg xmlns="http://www.w3.org/2000/svg" width="24" height="24" viewBox="0 0 24 24">
  <defs/>
  <path d="M7.72,0.22 C8.013,-0.072 8.487,-0.072 8.78,0.22 L9.984,1.423 C10.619,1.143 11.306,0.999 12,1 C12.717,1 13.4,1.151 14.016,1.423 L15.22,0.22 C15.516,-0.055 15.976,-0.047 16.262,0.238 C16.547,0.524 16.555,0.984 16.28,1.28 L15.309,2.252 C16.385,3.2 17.001,4.566 17,6 L17,7.104 C17.945,7.373 18.676,8.125 18.917,9.078 L20.915,8.079 C21.285,7.898 21.732,8.049 21.916,8.418 C22.1,8.786 21.952,9.234 21.585,9.421 L19,10.714 L19,13.5 L22.25,13.503 C22.664,13.503 23,13.839 23,14.253 C23,14.667 22.664,15.003 22.25,15.003 L19,15.001 L19,16 C19,16.568 18.932,17.134 18.796,17.686 C18.809,17.692 18.823,17.698 18.836,17.704 L21.586,19.079 C21.957,19.264 22.107,19.715 21.921,20.086 C21.736,20.456 21.286,20.606 20.915,20.421 L18.277,19.102 C17.097,21.49 14.664,23.001 12,23 C9.4,23.001 7.013,21.56 5.803,19.258 L3.045,20.439 C2.797,20.556 2.504,20.528 2.283,20.367 C2.061,20.205 1.945,19.935 1.981,19.663 C2.017,19.391 2.199,19.16 2.455,19.061 L5.25,17.862 C5.083,17.255 4.999,16.629 5,16 L5,15.004 L1.75,15.004 C1.336,15.004 1,14.668 1,14.254 C1,13.84 1.336,13.504 1.75,13.504 L5,13.504 L5,10.714 L2.415,9.42 C2.048,9.233 1.9,8.785 2.084,8.417 C2.268,8.048 2.715,7.897 3.085,8.078 L5.083,9.077 C5.324,8.125 6.055,7.373 7,7.104 L7,6 C6.999,4.566 7.614,3.2 8.69,2.252 L7.72,1.28 C7.428,0.987 7.428,0.513 7.72,0.22 Z M6.5,9.75 L6.5,16 C6.5,19.038 8.962,21.5 12,21.5 C15.038,21.5 17.5,19.038 17.5,16 L17.5,9.75 C17.5,9.06 16.94,8.5 16.25,8.5 L7.75,8.5 C7.06,8.5 6.5,9.06 6.5,9.75 Z M8.5,7 L15.5,7 L15.5,6 C15.5,4.067 13.933,2.5 12,2.5 C10.067,2.5 8.5,4.067 8.5,6 Z"/>
</svg>
